images/icon-linkedin.svg

<svg height="64" viewBox="0 0 64 64" width="64" xmlns="http://www.w3.org/2000/svg"><path d="m23.8020218 54.5935836h10.4205106v-17.5569097c0-.9397745.0681509-1.8786063.3435747-2.5487965.7529501-1.878135 2.4680032-3.8222521 5.3458521-3.8222521 3.7718008 0 5.2795814 2.8843629 5.2795814 7.1081636v16.8197947h10.4195705v-18.025383c0-9.6579027-5.1404594-14.1508164-11.9969119-14.1508164-5.6217459 0-8.0897492 3.1525333-9.4602877 5.2983673h.0686209v-4.5603097h-10.4205106c.1367718 2.9494025 0 31.4381418 0 31.4381418zm-10.9758232-35.7286787c3.6331491 0 5.8948196-2.4163609 5.8948196-5.4317455-.0676809-3.0846659-2.2616705-5.4331594-5.8261986-5.4331594-3.56499816 0-5.8948196 2.3484935-5.8948196 5.4331594 0 3.0153846 2.26120053 5.4317455 5.7580477 5.4317455zm5.2095503 4.2907254h-10.42004059v31.4381416h10.42004059z" fill-rule="evenodd"/></svg>

<?xml version="1.0" encoding="UTF-8"?>
<svg width="64px" height="64px" viewBox="0 0 64 64" version="1.1" xmlns="http://www.w3.org/2000/svg" xmlns:xlink="http://www.w3.org/1999/xlink">
    <!-- Generator: Sketch 52.6 (67491) - http://www.bohemiancoding.com/sketch -->
    <title>icon-linkedin</title>
    <desc>Created with Sketch.</desc>
    <g id="icon-linkedin" stroke="none" stroke-width="1" fill="none" fill-rule="evenodd">
        <path d="M23.8020218,54.5935836 L34.2225324,54.5935836 L34.2225324,37.0366739 C34.2225324,36.0968994 34.2906833,35.1580676 34.5661071,34.4878774 C35.3190572,32.6097424 37.0341103,30.6656253 39.9119592,30.6656253 C43.68376,30.6656253 45.1915406,33.5499882 45.1915406,37.7737889 L45.1915406,54.5935836 L55.6111111,54.5935836 L55.6111111,36.5682006 C55.6111111,26.9102979 50.4706517,22.4173842 43.6141992,22.4173842 C37.9924533,22.4173842 35.52445,25.5699175 34.1539115,27.7157515 L34.2225324,27.7157515 L34.2225324,23.1554418 L23.8020218,23.1554418 C23.9387936,26.1048443 23.8020218,54.5935836 23.8020218,54.5935836 Z M12.8261986,18.8649049 C16.4593477,18.8649049 18.7210182,16.448544 18.7210182,13.4331594 C18.6533373,10.3484935 16.4593477,8 12.8948196,8 C9.32982144,8 7,10.3484935 7,13.4331594 C7,16.448544 9.26120053,18.8649049 12.7580477,18.8649049 L12.8261986,18.8649049 Z M18.0357489,23.1556303 L7.61570831,23.1556303 L7.61570831,54.5937719 L18.0357489,54.5937719 L18.0357489,23.1556303 Z" fill="#000000"></path>
    </g>
</svg>
